collections/old_signs/svg/319.svg

<?xml version="1.0" encoding="UTF-8" standalone="no"?>
<!-- Generator: Adobe Illustrator 15.1.0, SVG Export Plug-In . SVG Version: 6.00 Build 0)  -->

<svg
   xmlns:dc="http://purl.org/dc/elements/1.1/"
   xmlns:cc="http://creativecommons.org/ns#"
   xmlns:rdf="http://www.w3.org/1999/02/22-rdf-syntax-ns#"
   xmlns:svg="http://www.w3.org/2000/svg"
   xmlns="http://www.w3.org/2000/svg"
   xmlns:sodipodi="http://sodipodi.sourceforge.net/DTD/sodipodi-0.dtd"
   xmlns:inkscape="http://www.inkscape.org/namespaces/inkscape"
   version="1.0"
   id="Kuvataso_1"
   x="0px"
   y="0px"
   width="493.92001"
   height="493.84799"
   viewBox="0 0 493.92001 493.84799"
   enable-background="new 0 0 595 842"
   xml:space="preserve"
   sodipodi:docname="319.svg"
   inkscape:version="0.92.5 (2060ec1f9f, 2020-04-08)"><metadata
   id="metadata1186"><rdf:RDF><cc:Work
       rdf:about=""><dc:format>image/svg+xml</dc:format><dc:type
         rdf:resource="http://purl.org/dc/dcmitype/StillImage" /></cc:Work></rdf:RDF></metadata><defs
   id="defs1184" /><sodipodi:namedview
   pagecolor="#ffffff"
   bordercolor="#666666"
   borderopacity="1"
   objecttolerance="10"
   gridtolerance="10"
   guidetolerance="10"
   inkscape:pageopacity="0"
   inkscape:pageshadow="2"
   inkscape:window-width="640"
   inkscape:window-height="480"
   id="namedview1182"
   showgrid="false"
   inkscape:zoom="0.28028504"
   inkscape:cx="268.492"
   inkscape:cy="194.488"
   inkscape:window-x="0"
   inkscape:window-y="0"
   inkscape:window-maximized="0"
   inkscape:current-layer="Kuvataso_1" />
<g
   id="g1179"
   transform="translate(-29.008,-121.64)">
	<path
   d="m 275.968,615.488 c 136.008,0 246.96,-110.952 246.96,-246.888 0,-136.008 -110.952,-246.96 -246.96,-246.96 -136.008,0 -246.96,110.952 -246.96,246.96 0,135.936 110.952,246.888 246.96,246.888 z"
   id="path1155"
   inkscape:connector-curvature="0"
   style="clip-rule:evenodd;fill:#ffd520;fill-rule:evenodd" />
	<g
   id="g1161">
		<path
   d="m 275.968,132.08 c 130.248,0 236.52,106.2 236.52,236.52 0,130.248 -106.272,236.448 -236.52,236.448 V 557.24 c 103.896,0 188.712,-84.744 188.712,-188.64 0,-103.968 -84.816,-188.712 -188.712,-188.712 z m 0,265.896 117.792,117.936 9.36,-8.784 10.584,-10.224 6.624,-6.192 -144.36,-144.504 z m 0,207.072 c -130.248,0 -236.52,-106.2 -236.52,-236.448 0,-130.32 106.272,-236.52 236.52,-236.52 v 47.808 c -103.896,0 -188.712,84.744 -188.712,188.712 0,103.896 84.816,188.64 188.712,188.64 z m 0,-258.84 -121.752,-121.968 -10.872,10.008 -7.416,8.352 -6.912,8.136 146.952,147.24 z"
   id="path1157"
   inkscape:connector-curvature="0"
   style="clip-rule:evenodd;fill:#ef3e42;fill-rule:evenodd" />
		<path
   stroke-miterlimit="10"
   d="m 275.968,132.08 c 130.248,0 236.52,106.2 236.52,236.52 0,130.248 -106.272,236.448 -236.52,236.448 -130.248,0 -236.52,-106.2 -236.52,-236.448 0,-130.32 106.272,-236.52 236.52,-236.52 z m 0,47.808 c 103.896,0 188.712,84.744 188.712,188.712 0,103.896 -84.816,188.64 -188.712,188.64 -103.896,0 -188.712,-84.744 -188.712,-188.64 0,-103.968 84.816,-188.712 188.712,-188.712 z m -146.952,70.848 264.744,265.176 9.36,-8.784 10.584,-10.224 6.624,-6.192 -266.112,-266.472 -10.872,10.008 -7.416,8.352 z"
   id="path1159"
   inkscape:connector-curvature="0"
   style="clip-rule:evenodd;fill:none;fill-rule:evenodd;stroke:#ef3e42;stroke-width:0.21600001;stroke-miterlimit:10" />
	</g>
	<g
   id="g1177">
		<path
   d="m 189.424,404.24 c 9.648,-0.432 17.64,7.992 18.936,12.168 2.088,3.384 4.608,15.48 -5.472,24.264 -9.648,7.56 -17.208,5.04 -21.816,2.952 -8.856,-4.176 -13.032,-12.6 -11.808,-21.816 1.728,-10.872 9.648,-17.136 20.16,-17.568 z"
   id="path1163"
   inkscape:connector-curvature="0"
   style="clip-rule:evenodd;fill-rule:evenodd" />
		<polygon
   points="163,418.136 164.224,414.32 165.52,411.368 167.608,408.416 170.128,405.536 172.648,403.016 175.6,401.288 178.912,399.632 182.296,398.408 186.112,397.544 189.424,397.544 193.24,397.544 196.552,398.408 199.936,399.632 203.32,401.288 206.272,403.016 209.152,405.536 211.312,408.416 213.4,411.368 215.056,414.32 216.352,418.136 216.712,421.376 217.144,424.76 302.752,424.76 240.256,362.696 240.256,365.648 189.856,365.648 194.896,324.104 201.592,324.104 194.896,317.408 149.104,317.408 147.448,317.408 145.792,318.2 144.496,319.496 143.272,320.72 127.288,386.24 127.288,424.76 162.136,424.76 162.136,421.376 "
   id="polygon1165"
   style="clip-rule:evenodd;fill-rule:evenodd" />
		<polygon
   points="176.68,379.112 134.704,379.112 147.736,324.104 183.016,324.104 "
   id="polygon1167"
   style="clip-rule:evenodd;fill:#ffd200;fill-rule:evenodd" />
		<polygon
   points="346.672,408.416 349.192,406.76 352.144,405.536 354.664,404.672 357.616,404.24 360.568,404.24 363.448,405.104 366.4,405.536 368.92,406.76 371.44,408.416 373.528,410.576 375.688,412.664 376.912,415.184 378.208,417.704 379,420.584 379.432,423.464 379.432,426.416 379,428.936 378.208,431.888 377.344,434.408 375.688,436.928 373.96,439.448 371.44,441.104 342.496,412.232 344.584,410.144 "
   id="polygon1169"
   style="clip-rule:evenodd;fill-rule:evenodd" />
		<polygon
   points="342.928,402.584 345.808,400.928 349.192,399.2 352.576,398.408 355.888,397.544 359.704,397.544 363.088,397.976 366.4,398.408 369.784,399.632 373.528,401.72 376.048,403.448 378.568,405.968 381.088,408.416 382.816,411.368 384.472,414.752 385.696,418.136 386.128,421.376 386.56,424.76 429.832,424.76 431.488,423.896 432.784,423.032 434.008,421.376 434.44,419.792 434.44,322.88 434.008,321.584 433.216,319.928 431.92,318.632 430.696,317.84 428.968,317.408 427.312,317.408 247.672,317.408 253.504,324.104 300.088,324.104 300.088,365.648 295.552,365.648 337.888,407.624 339.976,405.104 "
   id="polygon1171"
   style="clip-rule:evenodd;fill-rule:evenodd" />
		<rect
   x="309.30399"
   y="324.104"
   width="52.487999"
   height="41.543999"
   id="rect1173"
   style="clip-rule:evenodd;fill:#ffd200;fill-rule:evenodd" />
		<rect
   x="371.44"
   y="324.104"
   width="53.784"
   height="41.543999"
   id="rect1175"
   style="clip-rule:evenodd;fill:#ffd200;fill-rule:evenodd" />
	</g>
</g>
</svg>

<?xml version="1.0" encoding="utf-8"?>
<!-- Generator: Adobe Illustrator 15.1.0, SVG Export Plug-In . SVG Version: 6.00 Build 0)  -->
<!DOCTYPE svg PUBLIC "-//W3C//DTD SVG 1.0//EN" "http://www.w3.org/TR/2001/REC-SVG-20010904/DTD/svg10.dtd">
<svg version="1.0" id="Kuvataso_1" xmlns="http://www.w3.org/2000/svg" xmlns:xlink="http://www.w3.org/1999/xlink" x="0px" y="0px"
	 width="595px" height="842px" viewBox="0 0 595 842" enable-background="new 0 0 595 842" xml:space="preserve">
<g>
	<path fill-rule="evenodd" clip-rule="evenodd" fill="#FFD520" d="M275.968,615.488c136.008,0,246.96-110.952,246.96-246.888
		c0-136.008-110.952-246.96-246.96-246.96c-136.008,0-246.96,110.952-246.96,246.96C29.008,504.536,139.96,615.488,275.968,615.488z
		"/>
	<g>
		<path fill-rule="evenodd" clip-rule="evenodd" fill="#EF3E42" d="M275.968,132.08c130.248,0,236.52,106.2,236.52,236.52
			c0,130.248-106.272,236.448-236.52,236.448V557.24c103.896,0,188.712-84.744,188.712-188.64
			c0-103.968-84.816-188.712-188.712-188.712V132.08L275.968,132.08z M275.968,397.976L393.76,515.912l9.36-8.784l10.584-10.224
			l6.624-6.192l-144.36-144.504V397.976z M275.968,605.048c-130.248,0-236.52-106.2-236.52-236.448
			c0-130.32,106.272-236.52,236.52-236.52v47.808c-103.896,0-188.712,84.744-188.712,188.712
			c0,103.896,84.816,188.64,188.712,188.64V605.048L275.968,605.048z M275.968,346.208L154.216,224.24l-10.872,10.008l-7.416,8.352
			l-6.912,8.136l146.952,147.24V346.208z"/>
		<path fill-rule="evenodd" clip-rule="evenodd" fill="none" stroke="#EF3E42" stroke-width="0.216" stroke-miterlimit="10" d="
			M275.968,132.08c130.248,0,236.52,106.2,236.52,236.52c0,130.248-106.272,236.448-236.52,236.448
			c-130.248,0-236.52-106.2-236.52-236.448C39.448,238.28,145.72,132.08,275.968,132.08L275.968,132.08z M275.968,179.888
			c103.896,0,188.712,84.744,188.712,188.712c0,103.896-84.816,188.64-188.712,188.64S87.256,472.496,87.256,368.6
			C87.256,264.632,172.072,179.888,275.968,179.888L275.968,179.888z M129.016,250.736L393.76,515.912l9.36-8.784l10.584-10.224
			l6.624-6.192L154.216,224.24l-10.872,10.008l-7.416,8.352L129.016,250.736z"/>
	</g>
	<g>
		<path fill-rule="evenodd" clip-rule="evenodd" d="M189.424,404.24c9.648-0.432,17.64,7.992,18.936,12.168
			c2.088,3.384,4.608,15.48-5.472,24.264c-9.648,7.56-17.208,5.04-21.816,2.952c-8.856-4.176-13.032-12.6-11.808-21.816
			C170.992,410.936,178.912,404.672,189.424,404.24z"/>
		<polygon fill-rule="evenodd" clip-rule="evenodd" points="162.136,424.76 162.136,421.376 163,418.136 164.224,414.32 
			165.52,411.368 167.608,408.416 170.128,405.536 172.648,403.016 175.6,401.288 178.912,399.632 182.296,398.408 186.112,397.544 
			189.424,397.544 193.24,397.544 196.552,398.408 199.936,399.632 203.32,401.288 206.272,403.016 209.152,405.536 
			211.312,408.416 213.4,411.368 215.056,414.32 216.352,418.136 216.712,421.376 217.144,424.76 302.752,424.76 240.256,362.696 
			240.256,365.648 189.856,365.648 194.896,324.104 201.592,324.104 194.896,317.408 149.104,317.408 147.448,317.408 
			145.792,318.2 144.496,319.496 143.272,320.72 127.288,386.24 127.288,424.76 		"/>
		<polygon fill-rule="evenodd" clip-rule="evenodd" fill="#FFD200" points="147.736,324.104 183.016,324.104 176.68,379.112 
			134.704,379.112 		"/>
		<polygon fill-rule="evenodd" clip-rule="evenodd" points="342.496,412.232 344.584,410.144 346.672,408.416 349.192,406.76 
			352.144,405.536 354.664,404.672 357.616,404.24 360.568,404.24 363.448,405.104 366.4,405.536 368.92,406.76 371.44,408.416 
			373.528,410.576 375.688,412.664 376.912,415.184 378.208,417.704 379,420.584 379.432,423.464 379.432,426.416 379,428.936 
			378.208,431.888 377.344,434.408 375.688,436.928 373.96,439.448 371.44,441.104 		"/>
		<polygon fill-rule="evenodd" clip-rule="evenodd" points="337.888,407.624 339.976,405.104 342.928,402.584 345.808,400.928 
			349.192,399.2 352.576,398.408 355.888,397.544 359.704,397.544 363.088,397.976 366.4,398.408 369.784,399.632 373.528,401.72 
			376.048,403.448 378.568,405.968 381.088,408.416 382.816,411.368 384.472,414.752 385.696,418.136 386.128,421.376 
			386.56,424.76 429.832,424.76 431.488,423.896 432.784,423.032 434.008,421.376 434.44,419.792 434.44,322.88 434.008,321.584 
			433.216,319.928 431.92,318.632 430.696,317.84 428.968,317.408 427.312,317.408 247.672,317.408 253.504,324.104 
			300.088,324.104 300.088,365.648 295.552,365.648 		"/>
		<rect x="309.304" y="324.104" fill-rule="evenodd" clip-rule="evenodd" fill="#FFD200" width="52.488" height="41.544"/>
		<rect x="371.44" y="324.104" fill-rule="evenodd" clip-rule="evenodd" fill="#FFD200" width="53.784" height="41.544"/>
	</g>
</g>
</svg>
